X:55
T: Meenacross
S: B.Breathnach: "Ceol Rince na hEireann" II/15 (gan ainm)
Z: B.Black
L: 1/8
M: 6/8
R: jig
K: D
A,|DFA ABc|dAG F2E|DFA def|g2b efg|
fdB AFA|BAG FGA|d2A BAG|FGE D2 :|
g|fdf afd|gfg bag|fdf afd|g2b efg|
fdB AFA|BAG FGA|d2A BAG|FGE D2 :|

